X: 538
T: Def-i Nâliş Eylerim
C: Tanburî Cemil Bey
O: Turkey
F: http://compmusic.upf.edu/node/140
N: kurdilihicazkar--sarki--aksak--def-i_nalis--tanburi_cemil_bey
N: makam= kurdilihicazkar
N: form= sarki
N: usul= aksak = 9/8
M: 9/8
L: 1/16
K: C _B _e _A 
Q: 1/4=150
%%MIDI tuningsystem comma53
g4 f2g2 a2g2 b2g2 e2 | d2 e2d2 c2_1/4e2 f2g6  | \
w:  ARANAĞME  |   | 
b3=a g2f2 _2/4e2d2 _1/4e2f2 g2 | 
w:   | 
f2 g4 f2f_1/4e _2/4edd4z2  | c2d2 _1/4e2f2 g2f2 _e2d2 c2 | \
w:   |   | 
f3ed2 c2B2 dcc6  | 
w:   | 
B2d2 c2d2 B2c2 B2A2 G2 | G3ed2 cBBA AGG4z2  | \
w:   |   | 
g4 f2g2 a2g2 b2g2 e2 | 
w:  ARANAĞME  | 
d2 e2d2 c2_1/4e2 f2g6  | b3=a g2f2 _2/4e2d2 _1/4e2f2 g2 | \
w:   |   | 
f2 g4 f2f_1/4e _2/4edd4z2  | 
w:   | 
c2d2 _1/4e2f2 g2f2 _e2d2 c2 | f3ed2 c2B2 dcc6  | \
w:   |   | 
B2d2 c2d2 B2c2 B2A2 G2 | 
w:   | 
G3ed2 cBBA AGG4z2  | z4 f2g2 a2g2 _1/4b2a2 g2 | \
w:   |  Def  i  nâ  | 
g8-g2 f2e2 d2c2  | 
w:  liş   | 
z2d2 e2g2 f2e2 e4 d2 | d8f2 edd4z2  | \
w:  ey le *  rim   |  hep   | 
c3d _1/4e2f2 e2f2 g4 z2 | 
w:  seyr_ *  *  *  i  *  ruh  | 
z2 _1/4b2a2 g2f2 e2d4c2  | d3_1/4e f2g2 a2g2 _1/4b2a2 g2 | \
w:  sâ  |  rın *  *  *  *  *  *  *  la   | 
g12cd _1/4efg2  | 
w:  ben   SAZ  | 
z2g2 f2e2 d2c2 d2e2 f2 | g8-g2 f2e2 d2c2  | \
w:  Arz_ *  ı  çeh  |  re   | 
z2d2 e2f2 e2d2 c2_1/4B2 c2 | 
w:  ey *  le  gül   | 
d12df edd2  | z2g2 f2e2 d2c2 B4 A2 | \
w:  şen   |  şa *  tır_ ol   | 
G6 F2e3dc6  | B3d c2d2 B2c2 B2A2 AG | 
w:  pi  |  şin *  *  *  *  *  *  *  de   | 
G6 f2_1/4e2 f2g6  | z2g2 f2e2 d2c2 d2e2 f2 | \
w:  sen   SAZ  |  Arz_ *  ı  çeh  | 
g8-g2 f2e2 d2c2  | z2d2 e2f2 e2d2 c2_1/4B2 c2 | 
w:  re   |  ey *  le  gül   | 
d12df edd2  | z2g2 f2e2 d2c2 B4 A2 | \
w:  şen   |  şa *  tır_ ol   | 
G6 F2e3dc6  | B3d c2d2 B2c2 B2A2 AG | 
w:  pi  |  şin *  *  *  *  *  *  *  de   | 
G6 b2=a2 c'2b6  | z2=a4c'2 b3a g2a2 c'2 | \
w:  sen   SAZ  |  Gay rı  kur  | 
b8-b2 =a4 g2f2  | z2b2 =a2g2 f2e2 e3d c2 | 
w:  tul  |  sun  *  bu  kalb_  | 
d8f2 edd6  | c3d _1/4e2f2 e2f2 g4 z2 | \
w:  i   |  pür  *  *  e nî  | 
z2 _1/4b2a2 g2f2 e2d4c2  | 
w:  nim   | 
d3_1/4e f2g2 a2g2 _1/4b2a2 g2 | g12cd efg2  | \
w:  gir *  *  *  *  *  *  *  ye  |  den   SAZ  | 
z2g2 f2e2 d2c2 d2e2 f2 | 
w:  Arz_ *  ı  çeh  | 
g8-g2 f2e2 d2c2  | z2d2 e2f2 e2d2 c2_1/4B2 c2 | \
w:  re   |  ey *  le  gül   | 
d12df edd2  | 
w:  şen   | 
z2g2 f2e2 d2c2 B4 A2 | G6 F2e3dc6  | \
w:  şa *  tır_ ol   |  pi  | 
B3d c2d2 B2c2 B2A2 AG | 
w:  şin *  *  *  *  *  *  *  de   | 
G6 f2_1/4e2 f2g6  | z2g2 f2e2 d2c2 d2e2 f2 | \
w:  sen   SAZ  |  Arz_ *  ı  çeh  | 
g8-g2 f2e2 d2c2  | z2d2 e2f2 e2d2 c2_1/4B2 c2 | 
w:  re   |  ey *  le  gül   | 
d12df edd2  | z2g2 f2e2 d2c2 B4 A2 | \
w:  şen   |  şa *  tır_ ol   | 
G6 F2e3dc6  | B3d c2d2 B2c2 B2A2 AG | 
w:  pi  |  şin *  *  *  *  *  *  *  de   | 
G6 |
w:  sen    | 


